X:6627
T:The Circle Dance from Abram
O:england
M:2/2
C:
S:Ruth Temple
N:Collected by Maud Karpeles
%:
%:
%:
%:
A:Abram
R:N/A
%P:(ABCDEFG)$^2$
P:(ABCDEFG)2
K:G
I:speed 300
P:A
|: D2 | G2 Bc d2 ef | g2 a2 b4 | g2 d2 dedc  |  B4 G2 :|\
P:B
M:4/4
|: Bd | e2 c2 e2 ge | d2 B2 d4 | A2 d2 dedc  |1 B4 d2 :|2 B4 G4 ||\
I:speed 225
P:C
M:6/8
|: d2 c B>AG | d2 c B>AG | e2 d cBc | e3 g3 :|\
P:D
|: e2 d cBc | e3 g3 :|\
%:
P:E
M:6/8
|: d2 e f2 g | a2 g f>ed    | e>fg    f>ga    | g6 :|\
I:speed 300
P:F
M:2/2
|: G2 GG B2 B2 | d2 d2 g4 |    d2 B2 dcAB |  c2 A2 GFED |\
G2 GG B2 B2 | d2 d2 g4 |    d2 Bc dcBA |1 G4    G4   :|2 G4 G2 ||\
I:speed 300
P:G
M:4/4
|: dc | B2 G2 B2 d2 | A3 B  A2 dc | B2 G2 B2 d2 |  A4 A2
dc | B2 G2 B2 d2 | A2 A2 d2 Bc | d2 Bc dcBA  |1 G6    :|2 G2G2 B2d2 |
g8 ||


